resources/icons/20px/array-numeric.svg

<?xml version="1.0" encoding="UTF-8"?>
<svg width="20px" height="20px" viewBox="0 0 20 20" version="1.1" xmlns="http://www.w3.org/2000/svg" xmlns:xlink="http://www.w3.org/1999/xlink">
    <g stroke-width="1" fill-rule="evenodd">
        <path d="M19,0 C19.5128358,0 19.9355072,0.38604019 19.9932723,0.883378875 L20,1 L20,19 C20,19.5128358 19.6139598,19.9355072 19.1166211,19.9932723 L19,20 L15,20 C14.4477153,20 14,19.5522847 14,19 C14,18.4871642 14.3860402,18.0644928 14.8833789,18.0067277 L15,18 L18,18 L18,2 L15,2 C14.4871642,2 14.0644928,1.61395981 14.0067277,1.11662113 L14,1 C14,0.487164161 14.3860402,0.0644928393 14.8833789,0.00672773132 L15,0 L19,0 Z M5,0 C5.55228475,0 6,0.44771525 6,1 C6,1.51283584 5.61395981,1.93550716 5.11662113,1.99327227 L5,2 L2,2 L2,18 L5,18 C5.51283584,18 5.93550716,18.3860402 5.99327227,18.8833789 L6,19 C6,19.5128358 5.61395981,19.9355072 5.11662113,19.9932723 L5,20 L1,20 C0.487164161,20 0.0644928393,19.6139598 0.00672773133,19.1166211 L0,19 L0,1 C0,0.487164161 0.38604019,0.0644928393 0.883378875,0.00672773133 L1,0 L5,0 Z M13.995,6.09 C14.315,6.09 14.5983333,6.13666667 14.845,6.23 C15.0916667,6.32333333 15.3,6.45333333 15.47,6.62 C15.64,6.78666667 15.77,6.985 15.86,7.215 C15.95,7.445 15.995,7.69666667 15.995,7.97 C15.995,8.25666667 15.9316667,8.52166667 15.805,8.765 C15.6783333,9.00833333 15.4883333,9.21333333 15.235,9.38 L15.235,9.38 L15.235,9.4 L15.3361111,9.44944444 C15.4042593,9.4887037 15.4738889,9.54055556 15.545,9.605 C15.6516667,9.70166667 15.7483333,9.82 15.835,9.96 C15.9216667,10.1 15.9933333,10.2616667 16.05,10.445 C16.1066667,10.6283333 16.135,10.83 16.135,11.05 C16.135,11.3633333 16.0816667,11.6466667 15.975,11.9 C15.8683333,12.1533333 15.72,12.37 15.53,12.55 C15.34,12.73 15.115,12.8683333 14.855,12.965 C14.595,13.0616667 14.3116667,13.11 14.005,13.11 C13.4716667,13.11 13.015,12.9833333 12.635,12.73 C12.255,12.4766667 12.0116667,12.1166667 11.905,11.65 C11.8916667,11.5833333 11.9183333,11.54 11.985,11.52 L11.985,11.52 L12.855,11.32 L12.89625,11.316875 C12.93375,11.320625 12.96,11.345 12.975,11.39 C13.0483333,11.59 13.1683333,11.76 13.335,11.9 C13.5016667,12.04 13.725,12.11 14.005,12.11 C14.325,12.11 14.5716667,12.015 14.745,11.825 C14.9183333,11.635 15.005,11.3933333 15.005,11.1 C15.005,10.7533333 14.905,10.4816667 14.705,10.285 C14.505,10.0883333 14.235,9.99 13.895,9.99 L13.895,9.99 L13.605,9.99 L13.56125,9.98375 C13.52375,9.97125 13.505,9.94 13.505,9.89 L13.505,9.89 L13.505,9.1 L13.51125,9.05625 C13.52375,9.01875 13.555,9 13.605,9 L13.605,9 L13.875,9 L14.02,8.9925 C14.2533333,8.9675 14.445,8.88 14.595,8.73 C14.775,8.55 14.865,8.31 14.865,8.01 C14.865,7.73666667 14.785,7.515 14.625,7.345 C14.465,7.175 14.2416667,7.09 13.955,7.09 C13.7016667,7.09 13.5016667,7.15333333 13.355,7.28 C13.2083333,7.40666667 13.105,7.57666667 13.045,7.79 C13.025,7.85 12.985,7.87333333 12.925,7.86 L12.925,7.86 L12.075,7.66 L12.0325,7.645 C11.9975,7.625 11.985,7.59 11.995,7.54 C12.035,7.33333333 12.11,7.14166667 12.22,6.965 C12.33,6.78833333 12.47,6.635 12.64,6.505 C12.81,6.375 13.01,6.27333333 13.24,6.2 C13.47,6.12666667 13.7216667,6.09 13.995,6.09 Z M6.005,6.2 L6.04875,6.20625 C6.08625,6.21875 6.105,6.25 6.105,6.3 L6.105,6.3 L6.105,12.9 L6.09875,12.94375 C6.08625,12.98125 6.055,13 6.005,13 L6.005,13 L5.085,13 L5.04125,12.99375 C5.00375,12.98125 4.985,12.95 4.985,12.9 L4.985,12.9 L4.985,7.54 L4.965,7.54 L3.925,8.27 L3.8854,8.29 C3.83846667,8.306 3.815,8.27933333 3.815,8.21 L3.815,8.21 L3.815,7.19 L3.82277778,7.13888889 C3.83314815,7.1062963 3.85388889,7.07666667 3.885,7.05 L3.885,7.05 L4.975,6.26 L5.02611111,6.22666667 C5.06314815,6.20888889 5.10611111,6.2 5.155,6.2 L5.155,6.2 L6.005,6.2 Z M9.345,6.09 C9.665,6.09 9.94833333,6.14 10.195,6.24 C10.4416667,6.34 10.65,6.475 10.82,6.645 C10.99,6.815 11.12,7.015 11.21,7.245 C11.3,7.475 11.345,7.72333333 11.345,7.99 C11.345,8.29666667 11.2883333,8.57833333 11.175,8.835 C11.0616667,9.09166667 10.905,9.34 10.705,9.58 L10.705,9.58 L8.725,11.98 L8.725,12 L11.245,12 L11.28875,12.00625 C11.32625,12.01875 11.345,12.05 11.345,12.1 L11.345,12.1 L11.345,12.9 L11.33875,12.94375 C11.32625,12.98125 11.295,13 11.245,13 L11.245,13 L7.425,13 L7.38125,12.99375 C7.34375,12.98125 7.325,12.95 7.325,12.9 L7.325,12.9 L7.325,12.15 L7.33055556,12.1 C7.33796296,12.0688889 7.35277778,12.0422222 7.375,12.02 L7.375,12.02 L9.775,9.03 L9.89944444,8.86333333 C9.97648148,8.75222222 10.0416667,8.64111111 10.095,8.53 C10.175,8.36333333 10.215,8.18333333 10.215,7.99 C10.215,7.73666667 10.1366667,7.52333333 9.98,7.35 C9.82333333,7.17666667 9.60166667,7.09 9.315,7.09 C9.04166667,7.09 8.82833333,7.16666667 8.675,7.32 C8.52166667,7.47333333 8.42833333,7.68 8.395,7.94 C8.38166667,8.00666667 8.345,8.03333333 8.285,8.02 L8.285,8.02 L7.405,7.84 L7.3625,7.825 C7.3275,7.805 7.315,7.77 7.325,7.72 C7.345,7.52 7.40166667,7.32333333 7.495,7.13 C7.58833333,6.93666667 7.71833333,6.76166667 7.885,6.605 C8.05166667,6.44833333 8.25666667,6.32333333 8.5,6.23 C8.74333333,6.13666667 9.025,6.09 9.345,6.09 Z"></path>
    </g>
</svg>

<svg xmlns="http://www.w3.org/2000/svg" viewBox="0 0 20 20">
  <path d="M19 0a1 1 0 0 1 .993.883L20 1v18a1 1 0 0 1-.883.993L19 20h-4a1 1 0 0 1-.117-1.993L15 18h3V2h-3a1 1 0 0 1-.993-.883L14 1a1 1 0 0 1 .883-.993L15 0zM5 0a1 1 0 0 1 .117 1.993L5 2H2v16h3a1 1 0 0 1 .993.883L6 19a1 1 0 0 1-.883.993L5 20H1a1 1 0 0 1-.993-.883L0 19V1A1 1 0 0 1 .883.007L1 0zm8.995 6.09q.48 0 .85.14t.625.39.39.595.135.755q0 .43-.19.795a1.64 1.64 0 0 1-.57.615v.02l.101.05q.102.058.209.155.16.145.29.355a2.1 2.1 0 0 1 .3 1.09q0 .47-.16.85a1.9 1.9 0 0 1-1.12 1.065 2.4 2.4 0 0 1-.85.145q-.8 0-1.37-.38a1.7 1.7 0 0 1-.73-1.08q-.02-.1.08-.13l.87-.2.041-.003q.057.006.079.073.11.3.36.51t.67.21q.48 0 .74-.285t.26-.725q0-.52-.3-.815t-.81-.295h-.29l-.044-.006q-.056-.02-.056-.094V9.1l.006-.044q.02-.056.094-.056h.27l.145-.008a.93.93 0 0 0 .575-.262q.27-.27.27-.72 0-.41-.24-.665t-.67-.255q-.38 0-.6.19t-.31.51q-.03.09-.12.07l-.85-.2-.042-.015q-.053-.03-.038-.105a1.68 1.68 0 0 1 .645-1.035q.255-.195.6-.305t.755-.11m-7.99.11.044.006q.056.02.056.094v6.6l-.006.044q-.02.056-.094.056h-.92l-.044-.006q-.056-.02-.056-.094V7.54h-.02l-1.04.73-.04.02q-.07.024-.07-.08V7.19l.008-.051a.2.2 0 0 1 .062-.089l1.09-.79.051-.033a.3.3 0 0 1 .129-.027zm3.34-.11q.48 0 .85.15t.625.405.39.6.135.745q0 .46-.17.845a3.2 3.2 0 0 1-.47.745l-1.98 2.4V12h2.52l.044.006q.056.02.056.094v.8l-.006.044q-.02.056-.094.056h-3.82l-.044-.006q-.056-.02-.056-.094v-.75l.006-.05a.17.17 0 0 1 .044-.08l2.4-2.99.124-.167q.116-.166.196-.333.12-.25.12-.54a.92.92 0 0 0-.235-.64q-.235-.26-.665-.26-.41 0-.64.23t-.28.62q-.02.1-.11.08l-.88-.18-.043-.015q-.052-.03-.037-.105.03-.3.17-.59a1.8 1.8 0 0 1 .39-.525q.25-.236.615-.375a2.4 2.4 0 0 1 .845-.14"/>
</svg>
